X: 1678
T: Sarı Zeybek
C: Osman Pehlivan
O: Turkey
F: http://compmusic.upf.edu/node/140
N: huseyni--zeybek--agiraksak--sarizeybek--osman_pehlivan
N: makam= huseyni
N: form= zeybek
N: usul= agiraksak = 9/4
M: 9/4
L: 1/16
K: C _2/4B ^3/4f  
Q: 1/4=74
%%MIDI tuningsystem comma53
d3c d2B2 d3c d2B2 c3d BAG2 .A4 .A4 .A4  | \
w:   | 
d3c d2B2 d3c d2B2 c3d BAG2 A4 .A4 .A2B2  | 
w:   | 
c3d BAG2 A4 A2B2 c3d BAG2 A4 .A4 .A2B2  | \
w:   | 
c3d BAG2 A4 ede2 c3d BAG2 .A4 .A4 .A4  | 
w:   | 
d3c d2B2 d3c d2B2 c3d BAG2 .A4 .A4 .A4  | \
w:   | 
d3c d2B2 d3c d2B2 c3d BAG2 A4 .A4 .A2B2  | 
w:   | 
c3d BAG2 A4 A2B2 c3d BAG2 A4 .A4 .A2B2  | \
w:   | 
c3d BAG2 A4 ede2 c3d BAG2 .A4 .A4 .A4  | 
w:   | 
e3f g2a2 g3=f e2d2 c3d BAG2 .A4 .A4 .A4  | \
w:   | 
e3f g2a2 g2=f2 e2d2 c3d BAG2 .A4 .A4 A2B2  | 
w:   | 
c3d BAG2 A4 A2B2 c3d BAG2 .A4 .A4 A2B2  | \
w:   | 
c3d BAG2 A4 ede2 c3d BAG2 .A4 .A4 .A4  | 
w:   | 
g3f g2f2 g3f g2f2 g3f gfga .e4 .e4 .e4  | \
w:   | 
g3f g2f2 g3f g2f2 g3f gfga .e4 .e4 .e4  | 
w:   | 
e3f g2a2 g3=f e2d2 c3d BAG2 .A4 .A4 .A4  | \
w:   | 
e3f g2a2 g2=f2 e2d2 c3d BAG2 .A4 .A4 A2B2  | 
w:   | 
c3d BAG2 A4 A2B2 c3d BAG2 .A4 .A4 A2B2  | \
w:   | 
c3d BAG2 A4 ede2 c3d BAG2 .A4 .A4 .A4  | 
w:   | 
|


